X: 9
T: Ardrossan Hornpipe
C: Muriel Johnstone 1999
P: Tune for "Miss Johnstone of Ardrossan"
B: Roy Goldring "14 Social Dances for 2000"
R: reel
Z: 2015 John Chambers <jc:trillian.mit.edu>
M: 4/4
L: 1/8
K: A
{g}a2 |\
"A"e2AB cAec | "E"B2EG "E7"BGdB | "A"cAeA "D"fA"A"eA | "E"B2E2 E2{g}a2 |
"A"e2AB cAec | "E"B2EG "E7"BGdB | "A"cA"D"df "A"ec"E7"Bd | "A"c2"D"A2 "A"A2 ||
E2 |\
"A"A2EA cAGA | "Bm"FBcB dB^AB | "E"G2ef gefg | "A"a2A2 "E7"BEFG |
"A"A2EA cAGA | "Bm"FBcB dB^AB | "E"G2gf "E7"ecBd | "A"c2"D"A2 "A"A2 |]

%%sep 1 1 500
%%sep 1 1 500

